X: 1976
T: A Starry Night for a Ramble
S: Canterbury Country Dance Orchestra, Mistwold record
M: 6/8
R: jig
Z: For more tunes, discussion of the tunes, and other 
Z: traditional music and dance resources, go to 
Z: <http://tunes.nhcountrydance.com>.
K: D
|: g\
| "D" f2d A2F| "G" G3  B3 | "D" A2d c2d     | "A7"e3 efg  |
  "D" f2d A2F| "G" G3  B3 | "D" A2d "A7" cde| "D"d3- d2  :|
|: f\
| "G" g2g gfe| "D" f2f fed| "A7" e2e efg    | "D"a3- a2 f |
  "G" gag gfd| "D" fgf fed| "A7" efe efg    | "A7"a3- a2 :|

